packages/foundations/assets/icons/functional/images/transportation/train_28_inverted.svg

<svg width="28" height="28" viewBox="0 0 28 28" fill="none" xmlns="http://www.w3.org/2000/svg">
<g clip-path="url(#clip0_2214_6782)">
<path fill-rule="evenodd" clip-rule="evenodd" d="M6.21229 19.9758C7.07947 20.9438 8.10798 21.7917 9.69946 22.8367L10.1993 23.1533C10.5307 23.3391 10.8793 23.4535 11.3737 23.523C12.2763 23.5892 13.1512 23.6232 13.9983 23.625C14.8454 23.6268 15.6928 23.5965 16.5406 23.5341C16.9639 23.4805 17.2823 23.3971 17.5689 23.2687L18.1827 22.9191C19.9656 21.7541 20.8573 21.0111 21.7818 19.9807C21.5239 20.9612 21.3639 21.554 21.3018 21.759C21.1228 22.3504 20.7319 22.9626 20.268 23.6663C19.804 24.3701 19.1245 24.8893 18.3467 25.1609C18.3644 25.2289 18.3736 25.3008 18.3736 25.375C18.3736 25.8237 18.0358 26.1936 17.6007 26.2441L10.4986 26.25C10.0154 26.25 9.62363 25.8582 9.62363 25.375C9.62363 25.2961 9.63408 25.2196 9.65368 25.1468C8.95858 24.899 8.34166 24.4543 7.88604 23.8574C7.43042 23.2605 7.02655 22.5516 6.77993 21.981C6.6898 21.7725 6.50059 21.1041 6.21229 19.9758ZM15.2992 1.75C17.9988 1.75 19.5619 2.69011 20.7698 4.2875C21.8899 5.76875 22.5442 7.54214 22.6551 9.38564L22.669 9.71165L22.741 12.5697C22.7762 13.5867 22.723 14.7287 22.5816 15.9958C22.3737 16.322 22.0227 16.8209 21.5286 17.4927C20.3586 19.0835 19.4397 20.0267 17.3246 21.3824C16.9799 21.6032 16.6293 21.8737 15.4818 21.8737C15.0254 21.8737 13.8295 21.8737 12.4892 21.8737C11.3737 21.8737 11.1383 21.68 10.6729 21.3824C8.4725 19.9758 7.56711 19.031 6.51825 17.5373C5.81901 16.5416 5.45083 16.0253 5.41372 15.9887C5.30276 14.8251 5.24771 13.8911 5.24854 13.1869C5.24953 12.4826 5.27643 11.3242 5.32924 9.71174C5.37846 7.75185 6.04221 5.85589 7.22817 4.2875C8.39292 2.74716 9.95414 1.75 12.7554 1.75358L15.2992 1.75ZM11.0185 15.7857C10.8369 15.387 10.3812 15.179 9.95414 15.3167C9.52706 15.4544 9.27871 15.8894 9.36415 16.3191L10.2129 18.9516C10.3946 19.3503 10.8502 19.5583 11.2773 19.4206C11.7044 19.2829 11.9527 18.8479 11.8673 18.4182L11.0185 15.7857ZM16.8807 15.8087L16.065 18.3193C15.9167 18.7792 16.1694 19.2723 16.6293 19.4206C17.0564 19.5583 17.5121 19.3503 17.6937 18.9516L18.5093 16.441C18.6576 15.9811 18.405 15.488 17.9451 15.3397C17.518 15.202 17.0623 15.41 16.8807 15.8087ZM13.9987 4.375C12.4888 4.375 11.2427 4.56881 10.2605 4.95644C8.75905 5.54903 7.75428 7.09848 8.09004 8.84588C8.27495 9.80819 8.45789 10.4748 8.56314 10.827C8.82785 11.713 9.55122 12.3805 10.4452 12.5791L11.7093 12.7771C13.075 12.9846 14.462 13.0054 15.832 12.8393L17.3883 12.6099C18.3594 12.4623 19.1583 11.7679 19.4397 10.8267C19.5423 10.4838 19.6767 10.1488 19.9116 8.84087C20.2071 7.19562 19.2825 5.62479 17.9082 5.02912C16.7035 4.50692 15.3961 4.375 13.9987 4.375Z" fill="#1A1C1F"/>
</g>
<defs>
<clipPath id="clip0_2214_6782">
<rect width="28" height="28" fill="white"/>
</clipPath>
</defs>
</svg>

<svg xmlns="http://www.w3.org/2000/svg" width="28" height="28" fill="none"><g clip-path="url(#a)"><path fill="#1A1C1F" fill-rule="evenodd" d="M6.212 19.976c.867.968 1.896 1.816 3.487 2.86l.5.317c.332.186.68.3 1.175.37q1.353.099 2.624.102 1.27.002 2.543-.09c.423-.055.741-.138 1.028-.266l.614-.35c1.783-1.165 2.674-1.908 3.599-2.938q-.387 1.47-.48 1.778c-.18.591-.57 1.204-1.034 1.907a3.8 3.8 0 0 1-1.921 1.495.875.875 0 0 1-.746 1.083l-7.102.006a.875.875 0 0 1-.845-1.103 3.85 3.85 0 0 1-1.768-1.29 9.5 9.5 0 0 1-1.106-1.876q-.136-.313-.568-2.005M15.3 1.75c2.7 0 4.263.94 5.47 2.537a9.4 9.4 0 0 1 1.886 5.099l.014.326.072 2.858q.053 1.525-.16 3.426-.31.489-1.052 1.497c-1.17 1.59-2.09 2.534-4.204 3.89-.345.22-.696.49-1.843.49h-2.993c-1.115 0-1.35-.193-1.816-.49-2.2-1.407-3.106-2.352-4.155-3.846Q5.47 16.044 5.414 15.99q-.167-1.746-.165-2.802 0-1.057.08-3.475a9.4 9.4 0 0 1 1.9-5.424c1.164-1.54 2.725-2.538 5.526-2.534zm-4.28 14.036a.875.875 0 0 0-1.655.533l.849 2.633a.875.875 0 0 0 1.654-.534zm5.862.023-.816 2.51a.875.875 0 0 0 1.629.633l.815-2.511a.875.875 0 0 0-1.628-.632M13.999 4.375q-2.265 0-3.738.581c-1.502.593-2.507 2.142-2.171 3.89.185.962.368 1.629.473 1.981a2.54 2.54 0 0 0 1.882 1.752l1.264.198c1.366.208 2.753.228 4.123.062l1.556-.23a2.54 2.54 0 0 0 2.052-1.782c.102-.343.237-.678.472-1.986.295-1.645-.63-3.216-2.004-3.812-1.205-.522-2.512-.654-3.91-.654" clip-rule="evenodd"/></g><defs><clipPath id="a"><path fill="#fff" d="M0 0h28v28H0z"/></clipPath></defs></svg>
